public/icons/twitter-icon.svg

<svg width="32" height="33" viewBox="0 0 32 33" fill="white" xmlns="http://www.w3.org/2000/svg">
<path fill-rule="evenodd" clip-rule="evenodd" d="M10.806 27.6233C21.3718 27.6233 27.151 18.9827 27.151 11.4905C27.151 11.2446 27.151 11.0004 27.1342 10.7572C28.2584 9.95578 29.2286 8.96068 30 7.82207C28.9528 8.28084 27.8398 8.5817 26.7016 8.71434C27.9 8.00547 28.7974 6.8918 29.2272 5.57769C28.0988 6.2382 26.8654 6.70435 25.5788 6.95447C23.4032 4.67171 19.7646 4.56111 17.4504 6.70845C15.9594 8.09302 15.3252 10.1574 15.7886 12.1265C11.17 11.8971 6.8664 9.74428 3.9488 6.20269C2.4242 8.79358 3.204 12.1068 5.7282 13.7705C4.814 13.7443 3.9194 13.5013 3.12 13.0619V13.1339C3.1214 15.8326 5.0492 18.1563 7.7288 18.691C6.8832 18.919 5.9956 18.9521 5.136 18.7877C5.8878 21.0981 8.0452 22.6805 10.5022 22.7261C8.468 24.3042 5.955 25.161 3.3678 25.1583C2.9114 25.1569 2.455 25.1306 2 25.0767C4.6278 26.7404 7.684 27.6234 10.806 27.6192" />
</svg>

<svg width="32" height="33" viewBox="0 0 32 33" fill="#fff" xmlns="http://www.w3.org/2000/svg">
    <path fill-rule="evenodd" clip-rule="evenodd"
        d="M10.806 27.623c10.566 0 16.345-8.64 16.345-16.133 0-.245 0-.49-.017-.733A11.586 11.586 0 0030 7.822c-1.047.459-2.16.76-3.298.892a5.71 5.71 0 002.525-3.136 11.607 11.607 0 01-3.648 1.376c-2.176-2.282-5.814-2.393-8.129-.246a5.63 5.63 0 00-1.661 5.418c-4.619-.229-8.923-2.382-11.84-5.923-1.525 2.59-.745 5.904 1.78 7.567a5.758 5.758 0 01-2.609-.708v.072c.001 2.699 1.93 5.022 4.609 5.557a5.789 5.789 0 01-2.593.097c.752 2.31 2.91 3.892 5.366 3.938A11.623 11.623 0 012 25.076a16.424 16.424 0 008.806 2.543" />
</svg>
